X: 52
T: Missa De Sancto Antonio / Kyrie
N: Derived from Rue1012a-Missa_De_Sancto_Antonio-Kyrie.krn
C: Pierre de la Rue
%%abc-version 2.0
%%abcx-abcm2ps-target-version 5.9.1 (29 Sep 2008)
%%abc-creator hum2abc beta
%%abcx-conversion-date 2019/02/17 08:01:11
%%abc-edited-by Jesse Rodin
%%abc-edited-by Chris Gage 01-07-2013
%%abcx-initial-encoding-date 2013/07/15/
%%humdrum-veritas 3544097550
%%humdrum-veritas-data 936522197
%%linebreak <none>
%%barnumbers 0
L: 1/4
M: 3/1
Q: 1/2=120
%%staves [1 2 3 4]
V: 1 clef=treble
V: 2 clef=treble-8
V: 3 clef=treble-8
V: 4 clef=bass
K: C
[V:1] z12 | 
[V:2] B8d4 | 
[V:3] z12 | 
[V:4] E,8F,4 | 
[V:1] E8G4 | 
[V:2] e6dcd2e2 | 
[V:3] z12 | 
[V:4] E,4A,4G,4 | 
[V:1] A6GFG4- | 
[V:2] A8e4- | 
[V:3] c12 | 
[V:4] F,4E,2E,6- | 
[V:1] G4B4A2c2- | 
[V:2] e4d4f3e | 
[V:3] B8c4 | 
[V:4] E,4G,4F,4- | 
[V:1] c2BAG4A4 | 
[V:2] c2d2e3dc2A2 | 
[V:3] A4B2c4d2 | 
[V:4] F,4E,4z2F,2 | 
[V:1] G2B4c2d3c/B/ | 
[V:2] B4z2A4G2 | 
[V:3] e8d4 | 
[V:4] E,3F,G,2A,2D,2G,2 | 
[V:1] A2G2B3dc4 | 
[V:2] A2B3cd4c2 | 
[V:3] d2e3fg4^f2 | 
[V:4] F,2E,2G,4A,4 | 
[V:1] B3cd2e3dB2 | 
[V:2] d6c2e4 | 
[V:3] g12 | 
[V:4] G,3A,B,2C3B,G,2 | 
[V:1] c2dcBAA4^G2 | 
[V:2] e2d3cBAB4 | 
[V:3] z4z4e4 | 
[V:4] A,2D,2E,2F,2E,4 | 
[V:1] A4z2c2B2A2 | 
[V:2] A4G2A2F4 | 
[V:3] c8d4 | 
[V:4] F,4E,2F,2D,4 | 
[V:1] c2BAG2A2B2c2- | 
[V:2] G8z4 | 
[V:3] e12 | 
[V:4] C,8z4 | 
[V:1] c2B2A2B3AA2 | 
[V:2] g4a2g4f2 | 
[V:3] d8c4- | 
[V:4] G,4F,2G,2A,3G, | 
[V:1] G2A2D4D3E/F/ | 
[V:2] g2c2z2g4G2 | 
[V:3] c4B8 | 
[V:4] E,2F,2G,8 | 
[V:1] G4E3F/G/A4 | 
[V:2] G4z4A4 | 
[V:3] z2B2c2B2c2d2 | 
[V:4] E,3F,/G,/A,2G,2F,4 | 
[V:1] G4z2G2A2G2- | 
[V:2] B3c/d/e8 | 
[V:3] e4B4c4 | 
[V:4] E,8z4 | 
[V:1] G2G2A2G2A2c2- | 
[V:2] d4z2e2d2e2 | 
[V:3] B4z4z4 | 
[V:4] z4z2E,2F,2E,2 | 
[V:1] c2B2A2c3BAG | 
[V:2] c2g2fef4e2- | 
[V:3] z12 | 
[V:4] F,2G,2A,4E,4 | 
[V:1] A4G8 ||  
[V:2] e2d2e8 ||  
[V:3] z4B8 ||  
[V:4] F,4E,8 ||  
[V:1]  [K:C] [K:clef=treble][M:2/1]z4G4 | 
[V:2]  [K:C] [K:clef=treble-8][M:2/1]z8 | 
[V:3]  [K:C] [K:clef=treble-8][M:2/1]B8 | 
[V:4]  [K:C] [K:clef=bass][M:2/1]G,4G,2E,2- | 
[V:1] G2E4DC | 
[V:2] z8 | 
[V:3] c8- | 
[V:4] E,2D,C,C,4- | 
[V:1] C4z4 | 
[V:2] z8 | 
[V:3] c8- | 
[V:4] C,4A,4 | 
[V:1] A4A2F2- | 
[V:2] z8 | 
[V:3] c8 | 
[V:4] A,2F,4E,D, | 
[V:1] F2EDD4 | 
[V:2] z4d4 | 
[V:3] d8- | 
[V:4] D,8 | 
[V:1] d4d2B2- | 
[V:2] d2B4AG | 
[V:3] d8- | 
[V:4] z8 | 
[V:1] B2AGG4 | 
[V:2] G4g4- | 
[V:3] d8 | 
[V:4] z4G,4 | 
[V:1] z2c4BA | 
[V:2] g2fef4 | 
[V:3] c8 | 
[V:4] A,8 | 
[V:1] B2d3cA2 | 
[V:2] g4f3e | 
[V:3] d4d2c2- | 
[V:4] G,3F,D,2F,2- | 
[V:1] c3BG2dc | 
[V:2] c2g3fde | 
[V:3] c2c2dcd2- | 
[V:4] F,E,C,2G,3F, | 
[V:1] BAA4^G2 | 
[V:2] f2d2e4 | 
[V:3] dcBAB4 | 
[V:4] D,2F,2E,4 | 
[V:1] A8 | 
[V:2] c3de2f2- | 
[V:3] A8- | 
[V:4] z8 | 
[V:1] z4A4 | 
[V:2] f2ede4 | 
[V:3] A8 | 
[V:4] z8 | 
[V:1] c6B2 | 
[V:2] A4z4 | 
[V:3] z4A4 | 
[V:4] z4A,4 | 
[V:1] A4G4 | 
[V:2] z8 | 
[V:3] e8- | 
[V:4] C6B,2 | 
[V:1] A2c4B2- | 
[V:2] z8 | 
[V:3] e8 | 
[V:4] A,4A,2G,2- | 
[V:1] B2A4G2- | 
[V:2] z8 | 
[V:3] e8 | 
[V:4] G,2A,3G,E,2 | 
[V:1] G2F4ED | 
[V:2] z8 | 
[V:3] d8 | 
[V:4] G,2D,2F,2G,2 | 
[V:1] C8 | 
[V:2] e4e2c2- | 
[V:3] z4e4- | 
[V:4] A,8 | 
[V:1] z8 | 
[V:2] cdefg3f | 
[V:3] e4d4 | 
[V:4] z2C4B,2 | 
[V:1] z4c4 | 
[V:2] edd4c2 | 
[V:3] e2g3^f^f2 | 
[V:4] CB,A,G,A,4 | 
[V:1] B6AG | 
[V:2] d8 | 
[V:3] g6fe | 
[V:4] G,8 | 
[V:1] A8 | 
[V:2] d8 | 
[V:3] f4f4 | 
[V:4] D,8 | 
[V:1] G4E4 | 
[V:2] B4c4 | 
[V:3] e8 | 
[V:4] E,4C,4 | 
[V:1] F8 | 
[V:2] A8 | 
[V:3] d8 | 
[V:4] D,8 | 
[V:1] E8 | 
[V:2] z4c4 | 
[V:3] c8 | 
[V:4] z4A,4 | 
[V:1] z4c4 | 
[V:2] B2G2A4 | 
[V:3] z8 | 
[V:4] G,2G,4^F,2 | 
[V:1] B4A4 | 
[V:2] G4d4 | 
[V:3] z4f4 | 
[V:4] G,4z2D,2 | 
[V:1] G4F4 | 
[V:2] B2c2A4- | 
[V:3] e4d4 | 
[V:4] E,2C,2D,4 | 
[V:1] E2A4G2 | 
[V:2] A4e4 | 
[V:3] c4B4 | 
[V:4] A,4E,4 | 
[V:1] A2c4BA | 
[V:2] e2c4c2 | 
[V:3] A8 | 
[V:4] z4A,4 | 
[V:1] B2A2d4 | 
[V:2] d4d2B2- | 
[V:3] f8 | 
[V:4] D,8 | 
[V:1] G4c4 | 
[V:2] B2B2c4 | 
[V:3] e8 | 
[V:4] E,4C,4 | 
[V:1] B2A4GF | 
[V:2] f6ed | 
[V:3] d8 | 
[V:4] D,8 | 
[V:1] E2A3GF2- | 
[V:2] e2A4A2 | 
[V:3] c8 | 
[V:4] A,8 | 
[V:1] F2E4D2 | 
[V:2] E4A4 | 
[V:3] B4A4 | 
[V:4] G,2E,2F,4 | 
[V:1] E8 ||  
[V:2] G8 ||  
[V:3] B8 ||  
[V:4] E,8 ||  
[V:1]  [K:C] [K:clef=treble][M:3/1]G8A4 | 
[V:2]  [K:C] [K:clef=treble-8][M:3/1]e8A4 | 
[V:3]  [K:C] [K:clef=treble-8][M:3/1]B4B2c4BA | 
[V:4]  [K:C] [K:clef=bass][M:3/1]E,8F,4 | 
[V:1] B4B2c4BA | 
[V:2] e4e2c4d2 | 
[V:3] G8A4 | 
[V:4] E,8F,4 | 
[V:1] G2E2G2A4GF | 
[V:2] e4e2c3AB2 | 
[V:3] B4c4d4 | 
[V:4] E,4E,2F,4E,D, | 
[V:1] E2c2B2c3AA2- | 
[V:2] c4z4c4 | 
[V:3] e8f4- | 
[V:4] C,D,E,F,G,2A,2A,F,2D, | 
[V:1] A2d2c2d3cA2 | 
[V:2] d3cA2d3ef2 | 
[V:3] f12 | 
[V:4] D,4z4D,4 | 
[V:1] B6G2A2B2 | 
[V:2] g8f2g2 | 
[V:3] d8d4 | 
[V:4] G,4G,3F,D,2G,2- | 
[V:1] G2c3BA2d3c | 
[V:2] e3fg2a3gfe | 
[V:3] e4e2f4f2 | 
[V:4] G,C,C,4F,3D,D,2 | 
[V:1] B2e3dcBA4 | 
[V:2] d2G2z2G2c3B | 
[V:3] g8e4 | 
[V:4] G,3E,E,4A,3G, | 
[V:1] d3cBAG2A4 | 
[V:2] AGF4G2z2A2 | 
[V:3] f4f2e3dd2 | 
[V:4] F,E,D,4E,2F,4 | 
[V:1] G4z2G4G2 | 
[V:2] B2e3dB2e3d | 
[V:3] e3dB2e3dcB | 
[V:4] E,8E,4 | 
[V:1] A8A2B2 | 
[V:2] cBA2d3cA2d2- | 
[V:3] A2d3cA2d3c | 
[V:4] F,4D,3E,F,2G,2- | 
[V:1] G2B2c2A2c2B2 | 
[V:2] dBe4d2e2d2 | 
[V:3] BAG2A4G4- | 
[V:4] G,2G,2F,3E,C,2G,2 | 
[V:1] G2B2A2d3cc2 | 
[V:2] e2d2f4e4 | 
[V:3] G4d4e4 | 
[V:4] E,2G,2F,2D,2A,4 | 
[V:1] d2A2B2c3BG2 | 
[V:2] d3cB2A2c3B | 
[V:3] f4e8 | 
[V:4] D,2F,2G,2A,3G,E,2 | 
[V:1] A2D2E2G4FE | 
[V:2] A2G4G2G4 | 
[V:3] d4c6B2 | 
[V:4] F,2G,2C,8 | 
[V:1] D2B3AG4F2 | 
[V:2] z2e2g3fecd2 | 
[V:3] B12 | 
[V:4] z2G,3F,E,4D,2 | 
[V:1] G4G2A4B2- | 
[V:2] G4z4z4 | 
[V:3] B2c4c2d2B2 | 
[V:4] E,2C,2E,2F,2D,2G,2- | 
[V:1] B2B2c4c2d2- | 
[V:2] g3fedc4B2 | 
[V:3] d2e3de2f4 | 
[V:4] G,2E,2A,3G,F,E,D,2- | 
[V:1] dcBAG2c4B2- | 
[V:2] A2G2g4z2g2 | 
[V:3] d2e3dcBA2G2 | 
[V:4] D,2G,3F,E,D,C,2E,2 | 
[V:1] BAA4^G2A4- | 
[V:2] f2e3dcBc4- | 
[V:3] A2c2B4A4- | 
[V:4] F,2A,2E,4A,,4- & x8A,4- | 
[V:1] A12 |]  
[V:2] c4e8 |]  
[V:3] A12 |]  
[V:4] A,,12 & A,12 |]  



